icon-themes/breeze_svg/cmd/32/pagesetup.svg

<svg viewBox="0 0 32 32" xmlns="http://www.w3.org/2000/svg"><path d="m4 6v12 1l7 7h17v-20zm1 1h22v18h-15v-7h-7zm9.5 1c-1.18641.0019829-2.208032.8375583-2.445312 2h-4.054688v1h4.050781c.237576 1.163878 1.261341 1.999871 2.449219 2 1.18641-.001983 2.208031-.837558 2.445312-2h7.054688v-1h-7.050781c-.237576-1.1638781-1.261341-1.9998714-2.449219-2zm6 6c-1.187878.000129-2.211643.836122-2.449219 2h-10.050781v1h10.054688c.237281 1.162442 1.258902 1.998 2.445312 2 1.187878-.000129 2.211643-.836122 2.449219-2h1.050781v-1h-1.054688c-.23728-1.162442-1.258902-1.998-2.445312-2zm0 1c.634902.000891 1.200475.401408 1.412109 1 .05749.160462.087216.32955.087891.5-.00067.17045-.030401.339538-.087891.5-.211634.598592-.777207.999109-1.412109 1-.634902-.000891-1.200475-.401408-1.412109-1-.04058-.112914-.067459-.230288-.080079-.349609-.005099-.049968-.007732-.100161-.007812-.150391.0002-.02019.000953-.040377.001953-.060547.00192-.044422.005819-.088742.011719-.132812l.001953-.015625c.01431-.099176.038516-.196666.072266-.291016.211634-.598592.777207-.999109 1.412109-1z" fill="#4d4d4d"/></svg>

<svg xmlns="http://www.w3.org/2000/svg" viewBox="0 0 32 32">
 <path 
     style="fill:#4d4d4d" 
     d="M 4 6 L 4 18 L 4 19 L 11 26 L 28 26 L 28 6 L 4 6 z M 5 7 L 27 7 L 27 25 L 12 25 L 12 18 L 5 18 L 5 7 z M 14.5 8 C 13.31359 8.0019829 12.291968 8.8375583 12.054688 10 L 8 10 L 8 11 L 12.050781 11 C 12.288357 12.163878 13.312122 12.999871 14.5 13 C 15.68641 12.998017 16.708031 12.162442 16.945312 11 L 24 11 L 24 10 L 16.949219 10 C 16.711643 8.8361219 15.687878 8.0001286 14.5 8 z M 20.5 14 C 19.312122 14.000129 18.288357 14.836122 18.050781 16 L 8 16 L 8 17 L 18.054688 17 C 18.291969 18.162442 19.31359 18.998 20.5 19 C 21.687878 18.999871 22.711643 18.163878 22.949219 17 L 24 17 L 24 16 L 22.945312 16 C 22.708032 14.837558 21.68641 14.002 20.5 14 z M 20.5 15 C 21.134902 15.000891 21.700475 15.401408 21.912109 16 C 21.969599 16.160462 21.999325 16.32955 22 16.5 C 21.99933 16.67045 21.969599 16.839538 21.912109 17 C 21.700475 17.598592 21.134902 17.999109 20.5 18 C 19.865098 17.999109 19.299525 17.598592 19.087891 17 C 19.047311 16.887086 19.020432 16.769712 19.007812 16.650391 C 19.002713 16.600423 19.00008 16.55023 19 16.5 C 19.0002 16.47981 19.000953 16.459623 19.001953 16.439453 C 19.003873 16.395031 19.007772 16.350711 19.013672 16.306641 L 19.015625 16.291016 C 19.029935 16.19184 19.054141 16.09435 19.087891 16 C 19.299525 15.401408 19.865098 15.000891 20.5 15 z "
     />
</svg>
